svg/color/near.svg

<svg width="64" height="65" viewBox="0 0 64 65" fill="none" xmlns="http://www.w3.org/2000/svg">
<g clip-path="url(#clip0_11313_5307)">
<rect y="0.303711" width="64" height="64" rx="32" fill="white"/>
<path d="M32 64.3037C49.6731 64.3037 64 49.9768 64 32.3037C64 14.6306 49.6731 0.303711 32 0.303711C14.3269 0.303711 0 14.6306 0 32.3037C0 49.9768 14.3269 64.3037 32 64.3037Z" fill="white"/>
<path d="M42.3167 16.9181L35.0975 27.6317C34.5983 28.3613 35.5583 29.2445 36.2495 28.6301L43.3535 22.4477C43.5455 22.2941 43.8143 22.4093 43.8143 22.6781V41.9933C43.8143 42.2621 43.4687 42.3773 43.3151 42.1853L21.8111 16.4573C21.1199 15.6125 20.1215 15.1517 19.0079 15.1517H18.2399C16.2431 15.1517 14.5919 16.8029 14.5919 18.8381V46.0253C14.5919 48.0605 16.2431 49.7117 18.2783 49.7117C19.5455 49.7117 20.7359 49.0589 21.4271 47.9453L28.6463 37.2317C29.1455 36.5021 28.1855 35.6189 27.4943 36.2333L20.3903 42.3773C20.1983 42.5309 19.9295 42.4157 19.9295 42.1469V22.8701C19.9295 22.6013 20.2751 22.4861 20.4287 22.6781L41.9327 48.4061C42.6239 49.2509 43.6607 49.7117 44.7359 49.7117H45.5039C47.5391 49.7117 49.1903 48.0605 49.1903 46.0253V18.8381C49.1903 16.8029 47.5391 15.1517 45.5039 15.1517C44.1983 15.1517 43.0079 15.8045 42.3167 16.9181Z" fill="black"/>
</g>
<rect x="0.5" y="0.803711" width="63" height="63" rx="31.5" stroke="#070B14" stroke-opacity="0.15"/>
<defs>
<clipPath id="clip0_11313_5307">
<rect y="0.303711" width="64" height="64" rx="32" fill="white"/>
</clipPath>
</defs>
</svg>

<svg xmlns="http://www.w3.org/2000/svg" width="64" height="65" fill="none" viewBox="0 0 64 65"><g clip-path="url(#near_svg-a)"><rect width="64" height="64" y=".304" fill="#fff" rx="32"/><path fill="#fff" d="M32 64.304c17.673 0 32-14.327 32-32s-14.327-32-32-32-32 14.327-32 32 14.327 32 32 32"/><path fill="#000" d="m42.317 16.918-7.22 10.714c-.499.73.461 1.612 1.152.998l7.104-6.182c.192-.154.461-.039.461.23v19.315c0 .27-.345.384-.499.192L21.811 16.457c-.691-.844-1.69-1.305-2.803-1.305h-.768c-1.997 0-3.648 1.65-3.648 3.686v27.187a3.687 3.687 0 0 0 3.686 3.687 3.7 3.7 0 0 0 3.15-1.767l7.218-10.713c.5-.73-.46-1.613-1.152-.999l-7.104 6.144c-.192.154-.46.039-.46-.23V22.87c0-.269.345-.384.499-.192l21.504 25.728a3.6 3.6 0 0 0 2.803 1.306h.768a3.687 3.687 0 0 0 3.686-3.687V18.838a3.687 3.687 0 0 0-3.686-3.686 3.72 3.72 0 0 0-3.187 1.766"/></g><rect width="63" height="63" x=".5" y=".804" stroke="#070B14" stroke-opacity=".15" rx="31.5"/><defs><clipPath id="near_svg-a"><rect width="64" height="64" y=".304" fill="#fff" rx="32"/></clipPath></defs></svg>
